X:030 
T:Carthy's Reel 
S:J.Wade < T. Matthews
F:file ID: cre.4/030carth
B:CRE4.181 (Ril Mhic Charthaigh)
Q:180
L:1/8
M:4/4
R:reel
K:G
"D modal"
AD~D2 FGAB|cAdB cAGE|AD~D2 FGAB|cAGE FD D2|
AD~D2 FGAB|cAdB cdeg|fage d^cAF|cAGE FD D2:|
defg adfa|gefd edB^c|defg adfd|gfed Beef|
gfe^c d2fd|defd e^cAe|fage d^cAG|FAGE FDD2:|

%%%

